contributed-vectors/quizizz.svg

<?xml version="1.0" encoding="UTF-8" standalone="no"?>
<svg
   viewBox="0 0 192 192"
   version="1.1"
   id="svg16"
   sodipodi:docname="quizizz.svg"
   inkscape:version="1.2 (dc2aedaf03, 2022-05-15)"
   xml:space="preserve"
   xmlns:inkscape="http://www.inkscape.org/namespaces/inkscape"
   xmlns:sodipodi="http://sodipodi.sourceforge.net/DTD/sodipodi-0.dtd"
   xmlns="http://www.w3.org/2000/svg"
   xmlns:svg="http://www.w3.org/2000/svg"
   xmlns:rdf="http://www.w3.org/1999/02/22-rdf-syntax-ns#"
   xmlns:cc="http://creativecommons.org/ns#"
   xmlns:dc="http://purl.org/dc/elements/1.1/"><metadata
     id="metadata20"><rdf:RDF><cc:Work
         rdf:about=""><dc:format>image/svg+xml</dc:format><dc:type
           rdf:resource="http://purl.org/dc/dcmitype/StillImage" /><dc:title /></cc:Work></rdf:RDF></metadata><sodipodi:namedview
     pagecolor="#ffffff"
     bordercolor="#666666"
     borderopacity="1"
     objecttolerance="10"
     gridtolerance="10"
     guidetolerance="10"
     inkscape:pageopacity="0"
     inkscape:pageshadow="2"
     inkscape:window-width="1884"
     inkscape:window-height="1052"
     id="namedview18"
     showgrid="false"
     inkscape:zoom="1.2291667"
     inkscape:cx="-51.254235"
     inkscape:cy="71.593217"
     inkscape:window-x="36"
     inkscape:window-y="0"
     inkscape:window-maximized="1"
     inkscape:current-layer="svg16"
     inkscape:snap-global="false"
     inkscape:showpageshadow="0"
     inkscape:pagecheckerboard="0"
     inkscape:deskcolor="#d1d1d1"><inkscape:grid
       type="xygrid"
       id="grid827"
       spacingx="4"
       spacingy="4" /></sodipodi:namedview><defs
     id="defs4"><style
       id="style2">.a{fill:none;stroke:#b1b5bd;stroke-linecap:round;stroke-linejoin:round;isolation:isolate;opacity:0.63;}</style></defs><path
     style="opacity:1;vector-effect:none;fill:#728dbe;fill-opacity:1;fill-rule:evenodd;stroke:none;stroke-width:11.69615364;stroke-linecap:round;stroke-linejoin:round;stroke-miterlimit:4;stroke-dasharray:none;paint-order:stroke fill markers"
     d="M 134 20 L 134 172 L 162 172 C 167.54 172 172 167.54 172 162 L 172 30 C 172 24.46 167.54 20 162 20 L 134 20 z "
     id="rect872-81" /><path
     style="opacity:1;vector-effect:none;fill:#ff837d;fill-opacity:1;fill-rule:evenodd;stroke:none;stroke-width:11.69615364;stroke-linecap:round;stroke-linejoin:round;stroke-miterlimit:4;stroke-dasharray:none;paint-order:stroke fill markers"
     d="M 30 20 C 24.46 20 20 24.46 20 30 L 20 162 C 20 167.54 24.46 172 30 172 L 58 172 L 58 20 L 30 20 z "
     id="rect872" /><rect
     style="opacity:1;vector-effect:none;fill:#f9de81;fill-opacity:1;fill-rule:evenodd;stroke:none;stroke-width:12;stroke-linecap:round;stroke-linejoin:round;stroke-miterlimit:4;stroke-dasharray:none;paint-order:stroke fill markers"
     id="rect872-8"
     width="40"
     height="152"
     x="56"
     y="20" /><rect
     style="opacity:1;vector-effect:none;fill:#73ada4;fill-opacity:1;fill-rule:evenodd;stroke:none;stroke-width:12;stroke-linecap:round;stroke-linejoin:round;stroke-miterlimit:4;stroke-dasharray:none;paint-order:stroke fill markers"
     id="rect872-4"
     width="40"
     height="152"
     x="96"
     y="20" /><rect
     class="a"
     x="20"
     y="20"
     width="152"
     height="140"
     rx="10"
     id="rect6-5"
     style="opacity:1;isolation:isolate;fill:#8c72bd;stroke:none;stroke-linecap:round;stroke-linejoin:round;fill-opacity:1" /><path
     style="opacity:1;vector-effect:none;fill:#ffffff;fill-opacity:1;fill-rule:evenodd;stroke:none;stroke-width:12;stroke-linecap:round;stroke-linejoin:round;stroke-miterlimit:4;stroke-dasharray:none;paint-order:stroke fill markers"
     d="m 96,52 c -19.944,0 -36,16.056 -36,36 0,19.944 16.056,36 36,36 7.21112,0 10.81586,-1.02894 16.43524,-4.65183 0.83859,-0.7853 4.41283,-4.54162 1.03711,-8.75 -2.54704,-3.17531 -6.56699,-1.76252 -7.42383,-1.41797 C 102.27754,111.64384 100.8595,112 96,112 82.704,112 72,101.296 72,88 72,74.704 82.704,64 96,64 c 13.296,0 24,10.704 24,24 0,4.545368 -0.54148,6.054367 -2.7193,9.669792 -0.36107,0.8988 -1.49645,4.404468 2.15235,6.673828 5.01368,3.11826 8.14985,-0.7426 9.07031,-2.13281 C 131.18732,97.166116 132,94.134453 132,88 132,68.056 115.944,52 96,52 Z"
     id="rect844"
     inkscape:connector-curvature="0"
     sodipodi:nodetypes="ssscccsssscccss" /><rect
     style="opacity:1;vector-effect:none;fill:#ffffff;fill-opacity:1;fill-rule:evenodd;stroke:none;stroke-width:12;stroke-linecap:round;stroke-linejoin:round;stroke-miterlimit:4;stroke-dasharray:none;paint-order:stroke fill markers"
     id="rect855"
     width="16"
     height="16"
     x="120"
     y="112"
     ry="8" /><path
     style="opacity:1;vector-effect:none;fill:#728dbe;fill-opacity:1;fill-rule:evenodd;stroke:none;stroke-width:11.6962;stroke-linecap:round;stroke-linejoin:round;stroke-miterlimit:4;stroke-dasharray:none;paint-order:stroke fill markers"
     d="m 134,-194.00166 v 151.999998 h 28 c 5.54,0 10,-4.46 10,-10 V -184.00166 c 0,-5.54 -4.46,-10 -10,-10 z"
     id="path297" /><path
     style="opacity:1;vector-effect:none;fill:#ff837d;fill-opacity:1;fill-rule:evenodd;stroke:none;stroke-width:11.6962;stroke-linecap:round;stroke-linejoin:round;stroke-miterlimit:4;stroke-dasharray:none;paint-order:stroke fill markers"
     d="m 30,-194.00166 c -5.54,0 -10,4.46 -10,10 v 131.999998 c 0,5.54 4.46,10 10,10 H 58 V -194.00166 Z"
     id="path299" /><rect
     style="opacity:1;vector-effect:none;fill:#f9de81;fill-opacity:1;fill-rule:evenodd;stroke:none;stroke-width:12;stroke-linecap:round;stroke-linejoin:round;stroke-miterlimit:4;stroke-dasharray:none;paint-order:stroke fill markers"
     id="rect301"
     width="40"
     height="152"
     x="56"
     y="-194.00166" /><rect
     style="opacity:1;vector-effect:none;fill:#73ada4;fill-opacity:1;fill-rule:evenodd;stroke:none;stroke-width:12;stroke-linecap:round;stroke-linejoin:round;stroke-miterlimit:4;stroke-dasharray:none;paint-order:stroke fill markers"
     id="rect303"
     width="40"
     height="152"
     x="96"
     y="-194.00166" /><rect
     class="a"
     x="20"
     y="-194.00166"
     width="152"
     height="140"
     rx="10"
     id="rect305"
     style="opacity:1;isolation:isolate;fill:#56595b;stroke:none;stroke-linecap:round;stroke-linejoin:round" /><rect
     class="a"
     x="20"
     y="-194.00166"
     width="152"
     height="140"
     rx="10"
     id="rect307"
     style="opacity:0.25;isolation:isolate;fill:#511119;stroke:none;stroke-linecap:round;stroke-linejoin:round" /><path
     style="opacity:1;vector-effect:none;fill:#ffffff;fill-opacity:1;fill-rule:evenodd;stroke:none;stroke-width:12;stroke-linecap:round;stroke-linejoin:round;stroke-miterlimit:4;stroke-dasharray:none;paint-order:stroke fill markers"
     d="m 96,-162.00166 c -19.944,0 -36,16.056 -36,36 0,19.944 16.056,35.999998 36,35.999998 7.21112,0 10.81586,-1.02894 16.43524,-4.65183 0.83859,-0.7853 4.41283,-4.54162 1.03711,-8.749998 -2.54704,-3.17531 -6.56699,-1.76252 -7.42383,-1.41797 -3.77098,2.46364 -5.18902,2.8198 -10.04852,2.8198 -13.296,0 -24,-10.704 -24,-24 0,-13.296 10.704,-24 24,-24 13.296,0 24,10.704 24,24 0,4.54537 -0.54148,6.05436 -2.7193,9.66979 -0.36107,0.8988 -1.49645,4.40447 2.15235,6.67383 5.01368,3.11826 8.14985,-0.7426 9.07031,-2.13281 2.68396,-5.0447 3.49664,-8.07636 3.49664,-14.21081 0,-19.944 -16.056,-36 -36,-36 z"
     id="path309"
     inkscape:connector-curvature="0"
     sodipodi:nodetypes="ssscccsssscccss" /><rect
     style="opacity:1;vector-effect:none;fill:#ffffff;fill-opacity:1;fill-rule:evenodd;stroke:none;stroke-width:12;stroke-linecap:round;stroke-linejoin:round;stroke-miterlimit:4;stroke-dasharray:none;paint-order:stroke fill markers"
     id="rect311"
     width="16"
     height="16"
     x="120"
     y="-102.00166"
     ry="8" /></svg>

<svg xmlns="http://www.w3.org/2000/svg" xml:space="preserve" id="svg16" version="1.1" viewBox="0 0 192 192"><defs id="defs4"><style id="style2">.a{fill:none;stroke:#b1b5bd;stroke-linecap:round;stroke-linejoin:round;isolation:isolate;opacity:.63}</style></defs><path id="rect872-81" d="M134 20v152h28c5.54 0 10-4.46 10-10V30c0-5.54-4.46-10-10-10h-28z" style="opacity:1;vector-effect:none;fill:#728dbe;fill-opacity:1;fill-rule:evenodd;stroke:none;stroke-width:11.69615364;stroke-linecap:round;stroke-linejoin:round;stroke-miterlimit:4;stroke-dasharray:none;paint-order:stroke fill markers"/><path id="rect872" d="M30 20c-5.54 0-10 4.46-10 10v132c0 5.54 4.46 10 10 10h28V20H30z" style="opacity:1;vector-effect:none;fill:#ff837d;fill-opacity:1;fill-rule:evenodd;stroke:none;stroke-width:11.69615364;stroke-linecap:round;stroke-linejoin:round;stroke-miterlimit:4;stroke-dasharray:none;paint-order:stroke fill markers"/><path id="rect872-8" d="M56 20h40v152H56z" style="opacity:1;vector-effect:none;fill:#f9de81;fill-opacity:1;fill-rule:evenodd;stroke:none;stroke-width:12;stroke-linecap:round;stroke-linejoin:round;stroke-miterlimit:4;stroke-dasharray:none;paint-order:stroke fill markers"/><path id="rect872-4" d="M96 20h40v152H96z" style="opacity:1;vector-effect:none;fill:#73ada4;fill-opacity:1;fill-rule:evenodd;stroke:none;stroke-width:12;stroke-linecap:round;stroke-linejoin:round;stroke-miterlimit:4;stroke-dasharray:none;paint-order:stroke fill markers"/><rect id="rect6-5" width="152" height="140" x="20" y="20" class="a" rx="10" style="opacity:1;isolation:isolate;fill:#8c72bd;stroke:none;stroke-linecap:round;stroke-linejoin:round;fill-opacity:1"/><path id="rect844" d="M96 52c-19.944 0-36 16.056-36 36s16.056 36 36 36c7.211 0 10.816-1.029 16.435-4.652.839-.785 4.413-4.541 1.037-8.75-2.547-3.175-6.567-1.762-7.423-1.418-3.771 2.464-5.19 2.82-10.049 2.82-13.296 0-24-10.704-24-24s10.704-24 24-24 24 10.704 24 24c0 4.545-.541 6.054-2.72 9.67-.36.899-1.496 4.404 2.153 6.674 5.014 3.118 8.15-.743 9.07-2.133C131.187 97.166 132 94.134 132 88c0-19.944-16.056-36-36-36Z" style="opacity:1;vector-effect:none;fill:#fff;fill-opacity:1;fill-rule:evenodd;stroke:none;stroke-width:12;stroke-linecap:round;stroke-linejoin:round;stroke-miterlimit:4;stroke-dasharray:none;paint-order:stroke fill markers"/><rect id="rect855" width="16" height="16" x="120" y="112" ry="8" style="opacity:1;vector-effect:none;fill:#fff;fill-opacity:1;fill-rule:evenodd;stroke:none;stroke-width:12;stroke-linecap:round;stroke-linejoin:round;stroke-miterlimit:4;stroke-dasharray:none;paint-order:stroke fill markers"/><path id="path297" d="M134-194.002v152h28c5.54 0 10-4.46 10-10v-132c0-5.54-4.46-10-10-10z" style="opacity:1;vector-effect:none;fill:#728dbe;fill-opacity:1;fill-rule:evenodd;stroke:none;stroke-width:11.6962;stroke-linecap:round;stroke-linejoin:round;stroke-miterlimit:4;stroke-dasharray:none;paint-order:stroke fill markers"/><path id="path299" d="M30-194.002c-5.54 0-10 4.46-10 10v132c0 5.54 4.46 10 10 10h28v-152Z" style="opacity:1;vector-effect:none;fill:#ff837d;fill-opacity:1;fill-rule:evenodd;stroke:none;stroke-width:11.6962;stroke-linecap:round;stroke-linejoin:round;stroke-miterlimit:4;stroke-dasharray:none;paint-order:stroke fill markers"/><path id="rect301" d="M56-194.002h40v152H56z" style="opacity:1;vector-effect:none;fill:#f9de81;fill-opacity:1;fill-rule:evenodd;stroke:none;stroke-width:12;stroke-linecap:round;stroke-linejoin:round;stroke-miterlimit:4;stroke-dasharray:none;paint-order:stroke fill markers"/><path id="rect303" d="M96-194.002h40v152H96z" style="opacity:1;vector-effect:none;fill:#73ada4;fill-opacity:1;fill-rule:evenodd;stroke:none;stroke-width:12;stroke-linecap:round;stroke-linejoin:round;stroke-miterlimit:4;stroke-dasharray:none;paint-order:stroke fill markers"/><rect id="rect305" width="152" height="140" x="20" y="-194.002" class="a" rx="10" style="opacity:1;isolation:isolate;fill:#56595b;stroke:none;stroke-linecap:round;stroke-linejoin:round"/><rect id="rect307" width="152" height="140" x="20" y="-194.002" class="a" rx="10" style="opacity:.25;isolation:isolate;fill:#511119;stroke:none;stroke-linecap:round;stroke-linejoin:round"/><path id="path309" d="M96-162.002c-19.944 0-36 16.056-36 36s16.056 36 36 36c7.211 0 10.816-1.029 16.435-4.651.839-.786 4.413-4.542 1.037-8.75-2.547-3.176-6.567-1.763-7.423-1.418-3.771 2.463-5.19 2.82-10.049 2.82-13.296 0-24-10.705-24-24 0-13.297 10.704-24 24-24s24 10.703 24 24c0 4.545-.541 6.054-2.72 9.67-.36.898-1.496 4.404 2.153 6.673 5.014 3.118 8.15-.743 9.07-2.133 2.684-5.045 3.497-8.076 3.497-14.21 0-19.945-16.056-36-36-36z" style="opacity:1;vector-effect:none;fill:#fff;fill-opacity:1;fill-rule:evenodd;stroke:none;stroke-width:12;stroke-linecap:round;stroke-linejoin:round;stroke-miterlimit:4;stroke-dasharray:none;paint-order:stroke fill markers"/><rect id="rect311" width="16" height="16" x="120" y="-102.002" ry="8" style="opacity:1;vector-effect:none;fill:#fff;fill-opacity:1;fill-rule:evenodd;stroke:none;stroke-width:12;stroke-linecap:round;stroke-linejoin:round;stroke-miterlimit:4;stroke-dasharray:none;paint-order:stroke fill markers"/></svg>
